X: 1862
T: Tal`atın Devri Kamerde
C: Zaharya
O: Turkey
F: http://compmusic.upf.edu/node/140
N: huseyni--agirsemai--aksaksemai--talatin_devri--zaharya
N: makam= huseyni
N: form= agirsemai
N: usul= aksaksemai = 10/8
M: 10/8
L: 1/16
K: C _2/4B ^3/4f  
Q: 1/4=120
%%MIDI tuningsystem comma53
e4 e2g2 fga2 g^2/4fe6  | e4 e2=f3/2e/ d^3/4cd2 e2e4z2  | \
w:  Tal a tın  *  *  *  *  *  dev  |  ri  ka mer *  *  *  *  *  de   | 
e4 e2=f2 e2f2 g2e2 {f}e2d2  | 
w:  mihr_ i  â *  *  *  lem  | 
d2c2 d2e3/2=f/ edc2 B2c4z2  | e4 e2=f3/2e/ ded2 c2d6  | \
w:  tâb_ *  *  *  *  *  *  *  e der    |  Sey ret  on *  *  *  *  *  dör  | 
d4 d2c3/2d/ cBA2 B2d2 c2d2  | 
w:  dün de  ol  *  *  *  *  *  meh   | 
e2d2 e2c2 d2c2 B2d4cB  | A2{B}A2 B2c2 Bcd2 cBA4z2  | 
w:  *  *  *  â *  lem_ i  meh  |  *  *  *  *  tâb_ *  *  *  e *  der    | 
a2g2 a2g3fe2 f2ga g2f2  | e4 a2g3ff3/2e/ d2e4z2  | \
w:  Mihr_ *  *  *  *  *  *  i   |  *  dı rah *  şa *  *  nım   | 
e2=f2 g2e4d4d2 {e}d2c2  | 
w:  şa  | 
e4 d2c=f edcB ABc4z2  | e2d2 c2d2 c2d2 e2c2 {d}c2B2  | 
w:  şah_ ı  hu *  *  *  bâ *  *  *  nım    |  Gel  *  *  *  *  *  a  öm  | 
A2{B}A2 B2c3BB3/2=f/ edd4z2  | e2f2 g2a2 gfg2 a=bag =fed2  | 
w:  rüm  *  *  *  *  *  *  *  *  *  gel   |  gel  *  *  *  *  *  *  *  *  gel   | 
g4 g2g3fe2 f2g2 {a}g2f2  | a2g2 f2e2 d2e3/2g/ ^2/4fee4z2  | z12  | 
w:  gel  *  *  *  *  be nim   |  ca *  *  *  *  nım  *  *  *  gel    |  | 
d2e2e2e2e3z  | a2g2f2e2d3z  | a2g2f2e2f4  | \
w:  Ta  dir  te  ni  ten   |  ni  ten  *  ni  ten   |  dost    | 
d6z6  | a2g4a2^f4  | 
w:  Ten   |  ni  ta  ni  ta   | 
g2e6z4  | e4e2d2c4  | d2e2d2c2B2d2  | c6z6  | \
w:  ni  ten   |  dost   Te  ni  ta   |  ni  ta  *  *  *  ni   |  ten    | 
e6e2e3z  | g3ee2e2e3z  | 
w:  Sim  be den   |  in *  ce  mi yan   | 
e4e2edd3c  | g3ee2e2e3d  | d4d2dce2dc  | \
w:  hok ka  de *  han    |  Hay  |  ra nın  o *  lam   | 
c6z6  | 
w:  ben    | 
z20  | e4 e2=f3/2e/ ded2 c2d6  | d4 d2c3/2d/ cBA2 B2d2 c2d2  | 
w:  |  Sey ret  on *  *  *  *  *  dör  |  dün de  ol  *  *  *  *  *  meh   | 
e2d2 e2c2 d2c2 B2d4cB  | A2{B}A2 B2c2 Bcd2 cBA4z2  | 
w:  *  *  *  â *  lem_ i  meh  |  *  *  *  *  tâb_ *  *  *  e *  der    | 
|


